plasma/desktoptheme/icons/compass.svg

<svg width="22" height="22" version="1.1" viewBox="0 0 22 22" xmlns="http://www.w3.org/2000/svg">
 <defs>
  <style id="current-color-scheme" type="text/css">.ColorScheme-Text { color:#565656; } .ColorScheme-Highlight { color:#5294e2; }</style>
  <style type="text/css">.ColorScheme-Text { color:#363636; }</style>
 </defs>
 <g id="16-16-compass" transform="translate(-27)">
  <rect x="54" y="4" width="16" height="16" rx="0" ry="0" opacity="0" stroke-width="1.4888" style="paint-order:fill markers stroke"/>
  <path class="ColorScheme-Text" d="m56 5c-1.108 0-2 0.892-2 2v9c0 1.108 0.892 2 2 2h12c1.108 0 2-0.892 2-2v-8c0-1.108-0.892-2-2-2h-7.6289c-0.57985-0.0229-0.60474 0.076886-1.0391-0.35742-0.43381-0.43381-0.61297-0.64213-1.332-0.64258zm0 1h2c0.31116-1.7e-6 0.52033 1.383e-4 0.99805 0.4707 0.47877 0.47161 0.6388 0.5293 1 0.5293h8.002c0.554 0 1 0.446 1 1v1h-14v-2c0-0.554 0.446-1 1-1zm-1 4h14v6c0 0.554-0.446 1-1 1h-12c-0.554 0-1-0.446-1-1z" fill="currentColor"/>
 </g>
 <g id="22-22-compass">
  <rect width="22" height="22" rx="0" ry="0" opacity="0" stroke-width="2" style="paint-order:fill markers stroke"/>
  <g transform="translate(-51 -1)">
   <rect x="54" y="4" width="16" height="16" rx="0" ry="0" opacity="0" stroke-width="1.4888" style="paint-order:fill markers stroke"/>
   <path class="ColorScheme-Text" d="m56 5c-1.108 0-2 0.892-2 2v9c0 1.108 0.892 2 2 2h12c1.108 0 2-0.892 2-2v-8c0-1.108-0.892-2-2-2h-7.6289c-0.57985-0.0229-0.60474 0.076886-1.0391-0.35742-0.43381-0.43381-0.61297-0.64213-1.332-0.64258zm0 1h2c0.31116-1.7e-6 0.52033 1.383e-4 0.99805 0.4707 0.47877 0.47161 0.6388 0.5293 1 0.5293h8.002c0.554 0 1 0.446 1 1v1h-14v-2c0-0.554 0.446-1 1-1zm-1 4h14v6c0 0.554-0.446 1-1 1h-12c-0.554 0-1-0.446-1-1z" fill="currentColor"/>
  </g>
 </g>
 <g id="compass">
  <rect x="-8" y="-36.055" width="32" height="32" fill="none" stroke-linecap="round" stroke-linejoin="round" stroke-miterlimit="2" stroke-width="4.2666"/>
  <path class="ColorScheme-Text" d="m-1.75-32c-2.3372 0-4.25 1.9128-4.25 4.25v14.5c0 2.3372 1.9128 4.25 4.25 4.25h19.5c2.3372 0 4.25-1.9128 4.25-4.25v-12.5c0-2.3372-1.9128-4.25-4.25-4.25h-12.357c-0.39658-0.01566-0.37762-0.03333-0.41211-0.05664-0.03449-0.02331-0.22767-0.22381-0.60938-0.60547-0.34455-0.34455-0.64469-0.68072-1.125-0.95117-0.48031-0.27046-1.0654-0.38629-1.7461-0.38672zm0 1h3.25c1.1684 7.32e-4 1.4591 0.33998 2.1641 1.0449 0.70584 0.70575 0.7472 0.91786 1.6895 0.95508h12.396c1.8005 0 3.25 1.4495 3.25 3.25v0.75h-26v-2.75c0-1.8005 1.4495-3.25 3.25-3.25zm-3.25 7h26v10.75c0 1.8005-1.4495 3.25-3.25 3.25h-19.5c-1.8005 0-3.25-1.4495-3.25-3.25z" fill="currentColor"/>
 </g>
</svg>

<?xml version="1.0" encoding="UTF-8" standalone="no"?>
<svg
   width="22"
   height="22"
   version="1.1"
   viewBox="0 0 22 22"
   id="svg7813"
   sodipodi:docname="compass.svg"
   inkscape:version="1.2 (dc2aedaf03, 2022-05-15)"
   xmlns:inkscape="http://www.inkscape.org/namespaces/inkscape"
   xmlns:sodipodi="http://sodipodi.sourceforge.net/DTD/sodipodi-0.dtd"
   xmlns="http://www.w3.org/2000/svg"
   xmlns:svg="http://www.w3.org/2000/svg">
  <sodipodi:namedview
     id="namedview7815"
     pagecolor="#ffffff"
     bordercolor="#666666"
     borderopacity="1.0"
     inkscape:showpageshadow="2"
     inkscape:pageopacity="0.0"
     inkscape:pagecheckerboard="0"
     inkscape:deskcolor="#d1d1d1"
     showgrid="true"
     inkscape:zoom="10.727273"
     inkscape:cx="1.2584746"
     inkscape:cy="-27.826271"
     inkscape:window-width="1920"
     inkscape:window-height="1000"
     inkscape:window-x="0"
     inkscape:window-y="0"
     inkscape:window-maximized="1"
     inkscape:current-layer="svg7813">
    <inkscape:grid
       type="xygrid"
       id="grid7934" />
  </sodipodi:namedview>
  <defs
     id="defs7792">
    <style
       id="current-color-scheme"
       type="text/css">.ColorScheme-Text { color:#565656; } .ColorScheme-Highlight { color:#5294e2; }</style>
    <style
       type="text/css"
       id="style7790">.ColorScheme-Text { color:#363636; }</style>
  </defs>
  <g
     id="16-16-compass"
     transform="translate(-27)">
    <rect
       x="54"
       y="4"
       width="16"
       height="16"
       rx="0"
       ry="0"
       opacity="0"
       stroke-width="1.4888"
       style="paint-order:fill markers stroke"
       id="rect7794" />
    <path
       class="ColorScheme-Text"
       d="m56 5c-1.108 0-2 0.892-2 2v9c0 1.108 0.892 2 2 2h12c1.108 0 2-0.892 2-2v-8c0-1.108-0.892-2-2-2h-7.6289c-0.57985-0.0229-0.60474 0.076886-1.0391-0.35742-0.43381-0.43381-0.61297-0.64213-1.332-0.64258zm0 1h2c0.31116-1.7e-6 0.52033 1.383e-4 0.99805 0.4707 0.47877 0.47161 0.6388 0.5293 1 0.5293h8.002c0.554 0 1 0.446 1 1v1h-14v-2c0-0.554 0.446-1 1-1zm-1 4h14v6c0 0.554-0.446 1-1 1h-12c-0.554 0-1-0.446-1-1z"
       fill="currentColor"
       id="path7796" />
  </g>
  <g
     id="22-22-compass">
    <rect
       width="22"
       height="22"
       rx="0"
       ry="0"
       opacity="0"
       stroke-width="2"
       style="paint-order:fill markers stroke"
       id="rect7799" />
    <g
       transform="translate(-51 -1)"
       id="g7805">
      <rect
         x="54"
         y="4"
         width="16"
         height="16"
         rx="0"
         ry="0"
         opacity="0"
         stroke-width="1.4888"
         style="paint-order:fill markers stroke"
         id="rect7801" />
      <path
         class="ColorScheme-Text"
         d="m56 5c-1.108 0-2 0.892-2 2v9c0 1.108 0.892 2 2 2h12c1.108 0 2-0.892 2-2v-8c0-1.108-0.892-2-2-2h-7.6289c-0.57985-0.0229-0.60474 0.076886-1.0391-0.35742-0.43381-0.43381-0.61297-0.64213-1.332-0.64258zm0 1h2c0.31116-1.7e-6 0.52033 1.383e-4 0.99805 0.4707 0.47877 0.47161 0.6388 0.5293 1 0.5293h8.002c0.554 0 1 0.446 1 1v1h-14v-2c0-0.554 0.446-1 1-1zm-1 4h14v6c0 0.554-0.446 1-1 1h-12c-0.554 0-1-0.446-1-1z"
         fill="currentColor"
         id="path7803" />
    </g>
  </g>
  <g
     id="compass">
    <rect
       x="-8"
       y="-36.055"
       width="32"
       height="32"
       fill="none"
       stroke-linecap="round"
       stroke-linejoin="round"
       stroke-miterlimit="2"
       stroke-width="4.2666"
       id="rect7808" />
    <path
       class="ColorScheme-Text"
       d="m -1.75,-32 c -2.3372,0 -4.25,1.9128 -4.25,4.25 v 13.5 c 0,2.3372 1.9128,4.25 4.25,4.25 h 19.5 c 2.3372,0 4.25,-1.9128 4.25,-4.25 v -11.5 C 22,-28.0872 20.0872,-30 17.75,-30 H 5.393 C 4.99642,-30.01566 5.01538,-30.03333 4.98089,-30.05664 4.9464,-30.07995 4.75322,-30.28045 4.37151,-30.66211 4.02696,-31.00666 3.72682,-31.34283 3.24651,-31.61328 2.7662,-31.88374 2.18111,-31.99957 1.50041,-32 Z m 0,1 H 1.5 c 1.1684,7.32e-4 1.4591,0.33998 2.1641,1.0449 0.70584,0.70575 0.7472,0.91786 1.6895,0.95508 h 12.396 c 1.8005,0 3.25,1.4495 3.25,3.25 v 0.75 h -26 v -2.75 c 0,-1.8005 1.4495,-3.25 3.25,-3.25 z M -5,-24 h 26 v 9.75 c 0,1.8005 -1.4495,3.25 -3.25,3.25 H -1.75 C -3.5505,-11 -5,-12.4495 -5,-14.25 Z"
       fill="currentColor"
       id="path7810"
       sodipodi:nodetypes="sssssssscscccsccccssccsccccssssc" />
  </g>
</svg>
